X: 43
T: POLKAS: Pop Set
T: Pop No. 1
C: C: Damien Mullane; S: Damien Mullane
C: Set Leaders: Olya, Vova, Anton
Z: Oleg Naumov arr.; jeff_lindqvist at The Session
N: https://thesession.org/members/26966/sets/92364
R: Polka
M: 2/4
L: 1/8
Q: 1/4=140
K: Gmaj
"G"gd dg|"C"ef/e/ dc|"G"BG GB|"D"Ad fa|
"G"gd dg|"C"ef/e/ dc|"G"Bd "C"ce|"(G)"dg "D"fa|
"G"gd dg|"C"ef/e/ dc|"G"BG GB|"D"Ad fa|
"Em"gd dg|"C"ef/e/ dc|"G"BG "(C)"GB|"D (Am)"A/B/A/G/ "D/B"FA||
|:"Em"GB/G/ FG|"C"E2- EG|"G"DG GB|"D"A/B/A/G/ FA|
"Em"GB/G/ "(D)"FG|"C"E2- EG|"G"DG Bd|1 "D"A2 Ad:|2 "D"Ad fa||
T: Pop No. 2
K: Amaj
|:"A"A2 EA|"A"ce "D"c2-|cc BA|"D"ed dc|
"F#m"A2 EA|"F#m"A/B/c/d/ "E"e2-|ee dc|"E"ed dc:||
|:"A"A2 EA|"C#m"ce cB|"D"A2 EA|"E"ef e/d/c/B/|
"F#m (A)"A2 EA|"C#m"ce cB|"D"A2 EA|1 "E"ef e/d/c/B/:|2 "E"e2 e/d/c/B/||
T: Pop No. 3
K: Bmin
"Bm"d2 BA|"Bm (G)"Bd B2|"Bm (G)"AB df|"Em"e/f/e/d/ "A"BA|
"Bm"d2 BA|"Bm"Bd "Em"e2-|"Em"ed ef/a/|"G"b"(Bm)"a/f/ "A"af/e/|
"Bm"d2 BA|"Bm"Bd B2|"Bm (G)"AB df|"Em"e/f/e/d/ "A"BA|
"Bm"d2 BA|"Bm"Bd "Em"e2-|"Em"ed ef|"A"af "(A/F#)"ad'||
"G"b2 af|"D"ab f2|"A"e2 de|"Bm"fd cd|
"G"B2 AF|"D"AB df|"A"e2 de|"Bm"fd fa|
"G"b2 af|"D"ab f2|"A"e2 "(A/F#)"a>g|"Bm"fd cd|
"G"B2 AF|"G"AB df|"G"e2 de|"(A)"fd ec||

